X:390
T: Mrs. McLeod
N: O'Farrell's Pocket Companion v.4 (Sky ed. p.167)
N: "Scotch"
M: C
L: 1/8
Q: 320
R: reel
K: G
BA| G2g2 edeg| B2BAB2BA| G2g2 edeg| A2AG A2AB|
G2g2 edeg| B2BA B2Bd| edef e2 (3def| gedB A2 :|
AB| GGBG dBde| B2BAB2BA|  GGBG dBde| A2AG A2AB|
GGBG dBde| B2BA B2Bd| edef e2 (3def| g2 dB A2 :|
